X:1
T:Title
%%score { 1 | 2 }
L:1/8
M:4/4
K:Eb
V:1 treble nm="Grand Piano"
V:2 bass 
V:1
 z4 z2 z[Q:1/4=82] [GB] | [GB]GGG GGG[EGB] |[M:7/8] [EGB][FA][FA] [FA] [FA]3 |[M:1/8] [Ad] | %4
[M:4/4] [Ge][GB][GB][B,EG] [B,EG][B,EG][B,GB][EGB] |[M:7/8] [EGB][B,GB][B,FA] [A,DF] [G,E]3 | %6
[M:4/4] z4 [B,EG]>[B,EG] [B,EG][B,EG] | z4 [DFA]>[DFA] [DFA][DFA] | z4 [GB]/[GB]/[GB] [GB]>[EG] | %9
[M:7/8] [EG][EG][DF]<[DF] E3 |[M:4/4] BB B<G G>G GG | BB B<A [DFA]>[DFA] [DFA][DFA] | %12
 z4 [EGB]/[EGB]/[EGB] [EGB]>[B,EG] |[M:7/8] [B,EG][B,EG][A,DF]<[A,DF] [G,E]3 |] %14
V:2
 z4 z2 z [E,B,] | [E,B,][E,B,E][E,B,E][E,B,E] [E,B,E][E,B,E][E,B,E]E, | %2
[M:7/8] B,,[B,,B,][B,,B,] [B,,B,] [B,,B,]3 |[M:1/8] [B,,B,] |[M:4/4] [E,B,][E,E][E,E]E, E,E,E,E, | %5
[M:7/8] B,,B,,B,, B,, E,3 |[M:4/4][K:treble] BB B<G[K:bass] E,>E, E,E, | %7
 BB B<A[K:bass] B,,>B,, B,,B,, | ee e<B[K:bass] [E,E]/[E,E]/[E,E] [E,E]>[E,B,] | %9
[M:7/8] [B,,B,][B,,B,][B,,A,]<[B,,A,] [E,G,]3 |[M:4/4] z4 [E,B,E]>[E,B,E] [E,B,E][E,B,E] | %11
 z4 B,,>B,, B,,B,, | ee e<B[K:bass] E,/E,/E, E,>E, |[M:7/8] B,,B,,B,,<B,, E,3 |] %14

